icons/mtl.svg

<svg width="16" height="16" viewBox="0 0 16 16" fill="none" xmlns="http://www.w3.org/2000/svg">
<path fill-rule="evenodd" clip-rule="evenodd" d="M3.5 11C3.77614 11 4 11.2239 4 11.5V13.5C4 13.7761 3.77614 14 3.5 14C3.22386 14 3 13.7761 3 13.5V11.5C3 11.2239 3.22386 11 3.5 11Z" fill="#D9295E"/>
<path fill-rule="evenodd" clip-rule="evenodd" d="M3.5 5C3.77614 5 4 5.22386 4 5.5V7.5C4 7.77614 3.77614 8 3.5 8C3.22386 8 3 7.77614 3 7.5V5.5C3 5.22386 3.22386 5 3.5 5Z" fill="#D9295E"/>
<path fill-rule="evenodd" clip-rule="evenodd" d="M12.5 11C12.2239 11 12 10.7761 12 10.5V8.5C12 8.22386 12.2239 8 12.5 8C12.7761 8 13 8.22386 13 8.5V10.5C13 10.7761 12.7761 11 12.5 11Z" fill="#D9295E"/>
<path fill-rule="evenodd" clip-rule="evenodd" d="M12.5 5C12.2239 5 12 4.77614 12 4.5V2.5C12 2.22386 12.2239 2 12.5 2C12.7761 2 13 2.22386 13 2.5V4.5C13 4.77614 12.7761 5 12.5 5Z" fill="#D9295E"/>
<path fill-rule="evenodd" clip-rule="evenodd" d="M9.5 11C9.77614 11 10 11.2239 10 11.5V13.5C10 13.7761 9.77614 14 9.5 14C9.22386 14 9 13.7761 9 13.5V11.5C9 11.2239 9.22386 11 9.5 11Z" fill="#D9295E"/>
<path fill-rule="evenodd" clip-rule="evenodd" d="M9.5 5C9.77614 5 10 5.22386 10 5.5V7.5C10 7.77614 9.77614 8 9.5 8C9.22386 8 9 7.77614 9 7.5V5.5C9 5.22386 9.22386 5 9.5 5Z" fill="#D9295E"/>
<path fill-rule="evenodd" clip-rule="evenodd" d="M6.5 11C6.22386 11 6 10.7761 6 10.5L6 8.5C6 8.22386 6.22386 8 6.5 8C6.77614 8 7 8.22386 7 8.5L7 10.5C7 10.7761 6.77614 11 6.5 11Z" fill="#D9295E"/>
<path fill-rule="evenodd" clip-rule="evenodd" d="M6.5 5C6.22386 5 6 4.77614 6 4.5L6 2.5C6 2.22386 6.22386 2 6.5 2C6.77614 2 7 2.22386 7 2.5L7 4.5C7 4.77614 6.77614 5 6.5 5Z" fill="#D9295E"/>
<path fill-rule="evenodd" clip-rule="evenodd" d="M5 12.5C5 12.2239 5.22386 12 5.5 12H7.5C7.77614 12 8 12.2239 8 12.5C8 12.7761 7.77614 13 7.5 13H5.5C5.22386 13 5 12.7761 5 12.5Z" fill="#D9295E"/>
<path fill-rule="evenodd" clip-rule="evenodd" d="M5 6.5C5 6.22386 5.22386 6 5.5 6L7.5 6C7.77614 6 8 6.22386 8 6.5C8 6.77614 7.77614 7 7.5 7H5.5C5.22386 7 5 6.77614 5 6.5Z" fill="#D9295E"/>
<path fill-rule="evenodd" clip-rule="evenodd" d="M11 9.5C11 9.77614 10.7761 10 10.5 10H8.5C8.22386 10 8 9.77614 8 9.5C8 9.22386 8.22386 9 8.5 9L10.5 9C10.7761 9 11 9.22386 11 9.5Z" fill="#D9295E"/>
<path fill-rule="evenodd" clip-rule="evenodd" d="M11 3.5C11 3.77614 10.7761 4 10.5 4L8.5 4C8.22386 4 8 3.77614 8 3.5C8 3.22386 8.22386 3 8.5 3L10.5 3C10.7761 3 11 3.22386 11 3.5Z" fill="#D9295E"/>
<path fill-rule="evenodd" clip-rule="evenodd" d="M11 12.5C11 12.2239 11.2239 12 11.5 12H13.5C13.7761 12 14 12.2239 14 12.5C14 12.7761 13.7761 13 13.5 13H11.5C11.2239 13 11 12.7761 11 12.5Z" fill="#D9295E"/>
<path fill-rule="evenodd" clip-rule="evenodd" d="M11 6.5C11 6.22386 11.2239 6 11.5 6L13.5 6C13.7761 6 14 6.22386 14 6.5C14 6.77614 13.7761 7 13.5 7H11.5C11.2239 7 11 6.77614 11 6.5Z" fill="#D9295E"/>
<path fill-rule="evenodd" clip-rule="evenodd" d="M5 9.5C5 9.77614 4.77614 10 4.5 10H2.5C2.22386 10 2 9.77614 2 9.5C2 9.22386 2.22386 9 2.5 9L4.5 9C4.77614 9 5 9.22386 5 9.5Z" fill="#D9295E"/>
<path fill-rule="evenodd" clip-rule="evenodd" d="M5 3.5C5 3.77614 4.77614 4 4.5 4L2.5 4C2.22386 4 2 3.77614 2 3.5C2 3.22386 2.22386 3 2.5 3L4.5 3C4.77614 3 5 3.22386 5 3.5Z" fill="#D9295E"/>
</svg>

<svg xmlns="http://www.w3.org/2000/svg" width="16" height="16" fill="none"><path fill="#D9295E" fill-rule="evenodd" d="M3.5 11a.5.5 0 0 1 .5.5v2a.5.5 0 0 1-1 0v-2a.5.5 0 0 1 .5-.5ZM3.5 5a.5.5 0 0 1 .5.5v2a.5.5 0 0 1-1 0v-2a.5.5 0 0 1 .5-.5ZM12.5 11a.5.5 0 0 1-.5-.5v-2a.5.5 0 0 1 1 0v2a.5.5 0 0 1-.5.5ZM12.5 5a.5.5 0 0 1-.5-.5v-2a.5.5 0 0 1 1 0v2a.5.5 0 0 1-.5.5ZM9.5 11a.5.5 0 0 1 .5.5v2a.5.5 0 0 1-1 0v-2a.5.5 0 0 1 .5-.5ZM9.5 5a.5.5 0 0 1 .5.5v2a.5.5 0 0 1-1 0v-2a.5.5 0 0 1 .5-.5ZM6.5 11a.5.5 0 0 1-.5-.5v-2a.5.5 0 0 1 1 0v2a.5.5 0 0 1-.5.5ZM6.5 5a.5.5 0 0 1-.5-.5v-2a.5.5 0 0 1 1 0v2a.5.5 0 0 1-.5.5ZM5 12.5a.5.5 0 0 1 .5-.5h2a.5.5 0 0 1 0 1h-2a.5.5 0 0 1-.5-.5ZM5 6.5a.5.5 0 0 1 .5-.5h2a.5.5 0 0 1 0 1h-2a.5.5 0 0 1-.5-.5ZM11 9.5a.5.5 0 0 1-.5.5h-2a.5.5 0 0 1 0-1h2a.5.5 0 0 1 .5.5ZM11 3.5a.5.5 0 0 1-.5.5h-2a.5.5 0 0 1 0-1h2a.5.5 0 0 1 .5.5ZM11 12.5a.5.5 0 0 1 .5-.5h2a.5.5 0 0 1 0 1h-2a.5.5 0 0 1-.5-.5ZM11 6.5a.5.5 0 0 1 .5-.5h2a.5.5 0 0 1 0 1h-2a.5.5 0 0 1-.5-.5ZM5 9.5a.5.5 0 0 1-.5.5h-2a.5.5 0 0 1 0-1h2a.5.5 0 0 1 .5.5ZM5 3.5a.5.5 0 0 1-.5.5h-2a.5.5 0 0 1 0-1h2a.5.5 0 0 1 .5.5Z" clip-rule="evenodd"/></svg>
